!!!OTL: 1119. Das Muskatellerlied.
!!!ODT: 1603
!!!ARE: Europa, Mitteleuropa, Deutschland
!!!SCT: E1119
!!!TXL: @@NDS
!!!YEM: Copyright 1995, estate of Helmut Schaffrath.
**kern	**text
*ICvox	*
*M6/4	*
*k[b-]	*
*F:	*
!LO:TX:a:t=Mel. 1603	!
{4c	Den
=1	=1
2f	lieb-
4f	-ſten
2g	Buh-
4g	-len,
=2	=2
2a	den
4a	ich
2g}	han,
{4cc	der
=3	=3
2a	liegt
4f	beim
2g	Wirth
4e	im
=4	=4
2.f	Kel-
2f}	-ler,
{4c	Er
=5	=5
2f	hat
4f	ein
2g	höl-
4g	-ʒens
=6	=6
2a	Röck-
4a	-lein
2g}	an
{4cc	und
=7	=7
2a	heißt
4f	der
2g	Mus-
4e	-ka-
=8	=8
2.f	-tel-
2f}	-ler.
{4a	Er
=9	=9
2cc	hat
4cc	mich
2g	näch-
4g	-ten
=10	=10
2a	trun-
4a	-ken
2g}	g'macht
{4g	und
=11	=11
2cc	fröh-
4cc	-lich
2g	heut
4g	den
=12	=12
2a	gan-
4a	-ʒen
2g}	Tag
{4cc	Gott
=13	=13
2a	geb
4g	ihm
2f	heint
4b-/	ein
=14	=14
2.a	gu-
2.g	-te
=15	=15
[2.f	Nacht!
4f]	.
4r}	.
==	==
!!!AGN: Trink -, Zech - Lied
!!!ONB: ESAC (Essen Associative Code) Database: ERK3
!!!AMT: compound duple
!!!AIN: vox
!!!EED: Helmut Schaffrath
!!!EEV: 1.0
!!!GTL: Trink- und Zechlieder.
!!!URL-scan: https://rosdok.uni-rostock.de/mcrviewer/recordIdentifier/rosdok_ppn745177999/iview2/phys_0061.iview2?x=178.18540850895147&y=1464.4930137381016&scale=0.701185927818147&rotation=0&layout=singlePageLayout
!!!ENC: Anna Maria Matuszewska
!!!EEV: 2024/12/23
*-	*-
